X: 85
T: Erev Shach
C: Emanuel Zamir 1992
M: 2/4
L: 1/8
Q: 1/4=150
K: Cm
"Cm"G3 G|A2 G2|F2 E2    |F4|\
GAGF    |F4   |DEDC     |C4|
G3 G    |A2 G2|F2 E2    |F4|\
BcBA    |GAGF |"Bb"F4   |
CDEF    |D2D2 |"Cm"C2B,C|C4|\
F3E     |DCDE |"Fm"F4   |F4|
"Cm"CDEF|D2D2 |C2B,C    |C4|\
F3E     |DCDE |C4       |C4|


